X:1
T:March Maestoso EHo.062
T:March Maestoso EHo.062
T:Ditters
C:Ditters
L:1/8
Q:1/4=120
M:4/4
K:D
V:1 treble 
V:1
!f! D3 A, F3 D | A2 F2 D2!p! f2 | e3 f g2 g2 | (g4 f2) a>f | e3 f g2 g2 | (g4 f2) z2!f! | %6
 A3 E c3 A | e2 c2 A2 a2 |{g} f3 e/d/ c2"^tr" B2 | A2 e>e e2 ^G2 | A2 e>e e2 ^G2 | %11
 A2 [CA]>[CA] [CA]2"^NB" z2 ::!f! E4 [A,G]4 | [A,E]4 z2!p! a2 | g2 f2 e2 d2 | c3 d e2 z2 | %16
!f! E4 [A,G]4 | [A,E]4 z2({BA^G)} A2 | d2 A2 F2 D2 | A2 A>B A>GF>E | D3 A, F3 D | A2 F2 D2!p! f2 | %22
 e3 f g2 g2 | (g4 f2) a>f | e3 f g2 g2 | (g4 f2) a2 | bc'd'c' bagf | gaba gfge | %28
 a3 b/g/ f2"^tr" e2 | d2 a>a a2 c2 | d2 a>a a2 c2 | d2 d>d d2"^NB1" z2 :| %32

